!!!OTL: Hebian yangliu paiduipai
!!!ARE: Asia, China,ÿYunnan, Songming
!! II, 86
!!!SCT: C1497
!!!YEM: Copyright 1995, estate of Helmut Schaffrath.
**kern
*ICvox
*Ivox
*M4/4
*k[b-e-]
*B-:
{8gg
8gg
8gg
16dd
16ff
8gg
16dd
16ff
16gg
16ff
8cc
=1
1gg
=2
16dd
16ff
16dd
16cc
2.g
=3
16dd
16ff
16dd
16cc
2.gg}
=4
{8.cc
16dd
8gg
16gg
16ff
16dd
16ff
16dd
16cc
16b-
16cc
16b-
16cc
=5
8dd
16b-
16cc
2.g}
=6
{8gg
8gg
8gg
16dd
16ff
16gg
16ff
16dd
16cc
16gg
16ff
8cc
=7
1gg
=8
16dd
16ff
16dd
16cc
2.g}
=9
{8.cc
16dd
8gg
16gg
16ff
16dd
16ff
16dd
16cc
16b-
16cc
16b-
16cc
=10
8dd
16b-
16cc
2.g}
==
!!!AGN: Shange
!!!AMT: simple quadruple
!!!AIN: vox
!!!EED: Helmut Schaffrath
!!!EEV: 1.0
*-
